static/images/eye.svg

<svg width="32" height="32" viewBox="0 0 32 32" fill="none" xmlns="http://www.w3.org/2000/svg">
<path d="M16.0001 9.25102C11.9691 9.18302 7.80007 12 5.17907 14.885C4.90396 15.1905 4.75171 15.587 4.75171 15.998C4.75171 16.4091 4.90396 16.8056 5.17907 17.111C7.74307 19.935 11.9001 22.817 16.0001 22.748C20.1001 22.817 24.2581 19.935 26.8241 17.111C27.0992 16.8056 27.2514 16.4091 27.2514 15.998C27.2514 15.587 27.0992 15.1905 26.8241 14.885C24.2001 12 20.0311 9.18302 16.0001 9.25102Z" stroke="#5D5D67" stroke-width="1.5" stroke-linecap="round" stroke-linejoin="round"/>
<path d="M19.75 16C19.7498 16.7417 19.5297 17.4666 19.1175 18.0831C18.7054 18.6997 18.1196 19.1802 17.4344 19.4639C16.7491 19.7475 15.9952 19.8217 15.2678 19.6768C14.5404 19.532 13.8723 19.1748 13.348 18.6503C12.8237 18.1258 12.4666 17.4576 12.322 16.7302C12.1774 16.0028 12.2517 15.2489 12.5355 14.5637C12.8194 13.8786 13.3001 13.293 13.9167 12.8809C14.5334 12.4689 15.2584 12.249 16 12.249C16.4926 12.2489 16.9804 12.3458 17.4355 12.5343C17.8905 12.7228 18.304 12.9991 18.6523 13.3474C19.0006 13.6958 19.2768 14.1094 19.4651 14.5645C19.6535 15.0196 19.7503 15.5074 19.75 16Z" stroke="#5D5D67" stroke-width="1.5" stroke-linecap="round" stroke-linejoin="round"/>
</svg>

<?xml version="1.0" encoding="UTF-8" standalone="no"?><!DOCTYPE svg PUBLIC "-//W3C//DTD SVG 1.1//EN" "http://www.w3.org/Graphics/SVG/1.1/DTD/svg11.dtd"><svg width="100%" height="100%" viewBox="0 0 32 32" version="1.1" xmlns="http://www.w3.org/2000/svg" xmlns:xlink="http://www.w3.org/1999/xlink" xml:space="preserve" xmlns:serif="http://www.serif.com/" style="fill-rule:evenodd;clip-rule:evenodd;stroke-linecap:round;stroke-linejoin:round;"><path d="M16,9.251c-4.031,-0.068 -8.2,2.749 -10.821,5.634c-0.275,0.306 -0.427,0.702 -0.427,1.113c-0,0.411 0.152,0.808 0.427,1.113c2.564,2.824 6.721,5.706 10.821,5.637c4.1,0.069 8.258,-2.813 10.824,-5.637c0.275,-0.305 0.427,-0.702 0.427,-1.113c0,-0.411 -0.152,-0.808 -0.427,-1.113c-2.624,-2.885 -6.793,-5.702 -10.824,-5.634Z" style="fill:none;fill-rule:nonzero;stroke:#5d5d67;stroke-width:1.5px;"/><path d="M19.75,16c-0,0.742 -0.22,1.467 -0.633,2.083c-0.412,0.617 -0.997,1.097 -1.683,1.381c-0.685,0.284 -1.439,0.358 -2.166,0.213c-0.728,-0.145 -1.396,-0.502 -1.92,-1.027c-0.524,-0.524 -0.881,-1.192 -1.026,-1.92c-0.145,-0.727 -0.07,-1.481 0.213,-2.166c0.284,-0.685 0.765,-1.271 1.382,-1.683c0.616,-0.412 1.341,-0.632 2.083,-0.632c0.493,-0 0.98,0.097 1.436,0.285c0.454,0.189 0.868,0.465 1.216,0.813c0.349,0.349 0.625,0.762 0.813,1.218c0.189,0.455 0.285,0.942 0.285,1.435Z" style="fill:none;fill-rule:nonzero;stroke:#5d5d67;stroke-width:1.5px;"/></svg>
